src/assets/outline/Coin.svg

<svg width="24" height="24" viewBox="0 0 24 24"  xmlns="http://www.w3.org/2000/svg">
<path d="M10.84 13.54H9.34C8.19 13.54 7.26 12.58 7.26 11.39C7.26 10.98 7.6 10.64 8.01 10.64C8.42 10.64 8.76 10.98 8.76 11.39C8.76 11.75 9.02 12.04 9.34 12.04H10.84C11.07 12.04 11.25 11.83 11.25 11.57C11.25 11.22 11.19 11.2 10.96 11.12L8.55 10.28C7.68 9.98001 7.25 9.37001 7.25 8.42001C7.25 7.34001 8.11 6.45001 9.16 6.45001H10.66C11.81 6.45001 12.74 7.41001 12.74 8.60001C12.74 9.01001 12.4 9.35001 11.99 9.35001C11.58 9.35001 11.24 9.01001 11.24 8.60001C11.24 8.24001 10.98 7.95001 10.66 7.95001H9.16C8.93 7.95001 8.75 8.16001 8.75 8.42001C8.75 8.77001 8.81 8.79001 9.04 8.87001L11.45 9.71001C12.32 10.02 12.74 10.63 12.74 11.57C12.75 12.66 11.89 13.54 10.84 13.54Z" />
<path d="M10 14.34C9.59 14.34 9.25 14 9.25 13.59V12.85C9.25 12.44 9.59 12.1 10 12.1C10.41 12.1 10.75 12.44 10.75 12.85V13.59C10.75 14.01 10.41 14.34 10 14.34Z" />
<path d="M10 7.93997C9.59 7.93997 9.25 7.59997 9.25 7.18997V6.40997C9.25 5.99997 9.59 5.65997 10 5.65997C10.41 5.65997 10.75 5.99997 10.75 6.40997V7.18997C10.75 7.59997 10.41 7.93997 10 7.93997Z" />
<path d="M9.99 18.72C5.17 18.72 1.25 14.8 1.25 9.97999C1.25 5.15999 5.17 1.23999 9.99 1.23999C14.81 1.23999 18.73 5.15999 18.73 9.97999C18.73 14.8 14.8 18.72 9.99 18.72ZM9.99 2.74999C6 2.74999 2.75 5.99999 2.75 9.98999C2.75 13.98 6 17.22 9.99 17.22C13.98 17.22 17.23 13.97 17.23 9.97999C17.23 5.98999 13.98 2.74999 9.99 2.74999Z" />
<path d="M17.02 22.72C15.17 22.72 13.43 21.82 12.36 20.3C12.12 19.96 12.2 19.49 12.54 19.25C12.88 19.01 13.35 19.09 13.59 19.43C14.38 20.55 15.66 21.21 17.02 21.21C19.34 21.21 21.22 19.33 21.22 17.01C21.22 15.66 20.56 14.38 19.46 13.59C19.12 13.35 19.05 12.88 19.29 12.54C19.53 12.2 20 12.13 20.34 12.37C21.83 13.44 22.72 15.17 22.72 17.01C22.72 20.17 20.17 22.72 17.02 22.72Z" />
</svg>

<?xml version="1.0" encoding="UTF-8"?>
<svg width="24" height="24" viewBox="0 0 24 24" xmlns="http://www.w3.org/2000/svg">
 <path d="m10.84 13.54h-1.5c-1.15 0-2.08-0.96-2.08-2.15 0-0.41 0.34-0.75 0.75-0.75s0.75 0.34 0.75 0.75c0 0.36 0.26 0.65 0.58 0.65h1.5c0.23 0 0.41-0.21 0.41-0.47 0-0.35-0.06-0.37-0.29-0.45l-2.41-0.84c-0.87-0.29999-1.3-0.90999-1.3-1.86 0-1.08 0.86-1.97 1.91-1.97h1.5c1.15 0 2.08 0.96 2.08 2.15 0 0.41-0.34 0.75-0.75 0.75s-0.75-0.34-0.75-0.75c0-0.36-0.26-0.65-0.58-0.65h-1.5c-0.23 0-0.41 0.21-0.41 0.47 0 0.35 0.06 0.37 0.29 0.45l2.41 0.84c0.87 0.30999 1.29 0.91999 1.29 1.86 0.01 1.09-0.85 1.97-1.9 1.97z"/>
 <path d="m10 14.34c-0.41 0-0.75-0.34-0.75-0.75v-0.74c0-0.41 0.34-0.75 0.75-0.75s0.75 0.34 0.75 0.75v0.74c0 0.42-0.34 0.75-0.75 0.75z"/>
 <path d="m10 7.94c-0.41 0-0.75-0.34-0.75-0.75v-0.78c0-0.41 0.34-0.75 0.75-0.75s0.75 0.34 0.75 0.75v0.78c0 0.41-0.34 0.75-0.75 0.75z"/>
 <path d="m9.99 18.72c-4.82 0-8.74-3.92-8.74-8.74 0-4.82 3.92-8.74 8.74-8.74s8.74 3.92 8.74 8.74c0 4.82-3.93 8.74-8.74 8.74zm0-15.97c-3.99 0-7.24 3.25-7.24 7.24 0 3.99 3.25 7.23 7.24 7.23s7.24-3.25 7.24-7.24c0-3.99-3.25-7.23-7.24-7.23z"/>
 <path d="m17.02 22.72c-1.85 0-3.59-0.9-4.66-2.42-0.24-0.34-0.16-0.81 0.18-1.05s0.81-0.16 1.05 0.18c0.79 1.12 2.07 1.78 3.43 1.78 2.32 0 4.2-1.88 4.2-4.2 0-1.35-0.66-2.63-1.76-3.42-0.34-0.24-0.41-0.71-0.17-1.05s0.71-0.41 1.05-0.17c1.49 1.07 2.38 2.8 2.38 4.64 0 3.16-2.55 5.71-5.7 5.71z"/>
</svg>
